X: 36176
T: Scott Drive
R: reel
M: 4/4
K: Dmajor
|:B2 Bd BAFE|DEFG ADFA|~f3 g fdBA|Bdde B2 BA|
B3 d BAFE|DEFG ADFA|Bcde fbaf|1 ~e3 d B2 BA:|2 ~e3 d B3 A||
|:AFEF D3 E|FGAD BABd|dcdf- fdBA|Bdde B3 A|
AFEF D3 E|FGAD BABd|zcde fbaf|~e3d B3 A:|

